X:1
T:E. P. Crawford
T:Ottawa
%%score { ( 1 2 ) | ( 3 4 ) }
L:1/8
Q:1/4=184
M:4/2
K:Db
V:1 treble 
V:2 treble 
V:3 bass 
V:4 bass 
V:1
"^Presto" A4 | F4 A4 d4 c4 | B8 A4 A4 | G4 F4 E4 F4 | A12 G4 | F6 F2 F4 F4 | F4 B8 F4 | %7
 A4 =G4 F4 G4 | A12 A4 | d4 D4 E4 B4 | B4 A8 A4 | G4 F4 E4 E4 | A12 A4 | d6 A2 F4 E4 | D4 B8 G4 | %15
 F4 F4 F6 F2 | D12 | D8 D8 |] %18
V:2
 F4 | D4 F4 D4 D4 | D8 D4 D4 | C4 D4 E4 D4 | C12 E4 | D6 D2 E4 E4 | D4 D8 D4 | D4 D4 D4 D4 | %8
 C12 C4 | D4 D4 D4 D4 | D4 D8 D4 | C4 D4 E4 D4 | C12 E4 | D6 D2 D4 D4 | D4 D8 D4 | D4 D4 C6 C2 | %16
 =D12 | B,8 A,8 |] %18
V:3
 D4 | A,4 E4 A,4 A,4 | G,8 A,4 A,4 | A,4 A,4 A,4 =G,4 | A,12 A,4 | A,6 A,2 =A,4 A,4 | B,4 B,8 B,4 | %7
 B,4 B,4 A,4 B,4 | A,12 A,4 | A,4 A,4 B,4 G,4 | G,4 A,8 A,4 | A,4 A,4 A,4 =G,4 | A,12 A,4 | %13
 A,6 A,2 A,4 =B,4 | B,4 G,8 B,4 | A,4 A,4 G,6 G,2 | F,12 | G,8 F,8 |] %18
V:4
 D,4 | D,4 D,4 F,4 F,4 | G,8 F,4 F,4 | E,4 D,4 C,4 B,,4 | A,,12 C,4 | D,6 D,2 C,4 C,4 | %6
 B,,4 B,,8 B,,4 | E,4 E,4 E,4 E,4 | A,12 G,4 | F,4 F,4 G,4 G,4 | G,4 F,8 F,4 | E,4 D,4 C,4 B,,4 | %12
 A,,12 G,4 | F,6 F,2 F,4 F,4 | G,4 E,8 E,4 | A,4 A,,4 A,,6 A,,2 | D,12 | G,,8 D,8 |] %18

